X: 2106
T: The Humours Of Cappa
B: nick
B: to learn
M:6/8
Q: 3/8=100
K:Dmajor
V:1 
|:dFF AFA|dFF AFA|BEE BEE|BdB AFA|
 dFF AFA|dFF AFA|ABd efg|fdd d2 A:|
 dfd cec|BdB AFA|BEE BEE|BdB AFA|
 dfd cec|BdB AFA|ABd efg|fdd d2A:|
% abcbook-tune_id 6345616313d025292373c115


% abcbook-boost 0
% abcbook-tablature 
% abcbook-transpose 
% abcbook-lastupdated 1666006291018
% abcbook-soundfonts 
% abcbook-repeats 3


